;FLAVOR:UltiGCode
;TIME:13577
;MATERIAL:14521
;MATERIAL2:0
;NOZZLE_DIAMETER:0.4
;Generated with Cura_SteamEngine 3.6.0
M82 ;absolute extrusion mode

G92 E0
G10
;LAYER_COUNT:39
;LAYER:0
M107
;MESH:titus.stl
G0 F4320 X94.415 Y117.204 Z0.27
;TYPE:WALL-INNER
G11
G1 F1800 X94.289 Y117.478 E0.0285
G1 X94.198 Y117.759 E0.05641
G1 X94.142 Y118.053 E0.08469
G1 X94.123 Y118.35 E0.11282
G1 X94.142 Y118.647 E0.14094
G1 X94.198 Y118.941 E0.16922
G1 X94.289 Y119.222 E0.19714
G1 X94.415 Y119.496 E0.22564
G1 X94.579 Y119.749 E0.25413
G1 X94.767 Y119.977 E0.28205
G1 X94.986 Y120.181 E0.31034
G1 X95.227 Y120.357 E0.33854
G1 X95.487 Y120.499 E0.36653
G1 X95.764 Y120.612 E0.39481
G1 X96.057 Y120.685 E0.42334
G1 X96.35 Y120.722 E0.45125
G1 X96.65 Y120.722 E0.4796
G1 X96.943 Y120.685 E0.50751
G1 X97.236 Y120.612 E0.53604
G1 X97.513 Y120.499 E0.56431
G1 X97.773 Y120.357 E0.59231
G1 X98.014 Y120.181 E0.62051
G1 X98.232 Y119.977 E0.64872
G1 X98.424 Y119.746 E0.67711
G1 X98.582 Y119.495 E0.70514
G1 X98.71 Y119.225 E0.73337
G1 X98.802 Y118.941 E0.76158
G1 X98.858 Y118.647 E0.78987
G1 X98.877 Y118.35 E0.81799
G1 X98.858 Y118.053 E0.84612
G1 X98.802 Y117.759 E0.8744
G1 X98.71 Y117.475 E0.90261
G1 X98.582 Y117.205 E0.93085
G1 X98.424 Y116.954 E0.95887
G1 X98.232 Y116.723 E0.98726
G1 X98.013 Y116.517 E1.01567
G1 X97.773 Y116.344 E1.04363
G1 X97.516 Y116.201 E1.07142
G1 X97.234 Y116.088 E1.10013
G1 X96.943 Y116.015 E1.12848
G1 X96.65 Y115.978 E1.15639
G1 X96.35 Y115.978 E1.18474
G1 X96.057 Y116.015 E1.21265
G1 X95.766 Y116.088 E1.241
G1 X95.484 Y116.201 E1.26971
G1 X95.227 Y116.344 E1.2975
G1 X94.987 Y116.517 E1.32546
G1 X94.766 Y116.723 E1.35401
G1 X94.579 Y116.951 E1.38188
G1 X94.415 Y117.204 E1.41037
G0 F4320 X94.755 Y117
G0 X104.625 Y111.475
G1 F1800 X104.625 Y125.225 E2.70974
G1 X118.375 Y125.225 E4.00912
G1 X118.375 Y111.475 E5.30849
G1 X104.625 Y111.475 E6.60787
G0 F4320 X118.053 Y111.797
G0 X125.184 Y119.941
G0 X125.861 Y120.316
G0 X126.63 Y120.411
G0 X127.305 Y120.238
G0 X128.585 Y119.496
G1 F1800 X128.711 Y119.222 E6.63637
G1 X128.802 Y118.941 E6.66428
G1 X128.858 Y118.647 E6.69256
G1 X128.877 Y118.35 E6.72069
G1 X128.858 Y118.053 E6.74881
G1 X128.802 Y117.759 E6.77709
G1 X128.711 Y117.478 E6.80501
G1 X128.585 Y117.204 E6.83351
G1 X128.421 Y116.951 E6.862
G1 X128.234 Y116.723 E6.88986
G1 X128.013 Y116.517 E6.91841
G1 X127.773 Y116.344 E6.94637
G1 X127.516 Y116.201 E6.97417
G1 X127.234 Y116.088 E7.00287
G1 X126.943 Y116.015 E7.03123
G1 X126.65 Y115.978 E7.05913
G1 X126.35 Y115.978 E7.08748
G1 X126.057 Y116.015 E7.11539
G1 X125.766 Y116.088 E7.14374
G1 X125.484 Y116.201 E7.17245
G1 X125.227 Y116.344 E7.20025
G1 X124.987 Y116.517 E7.2282
G1 X124.768 Y116.723 E7.25662
G1 X124.576 Y116.954 E7.285
G1 X124.418 Y117.205 E7.31303
G1 X124.29 Y117.475 E7.34127
G1 X124.198 Y117.759 E7.36948
G1 X124.142 Y118.053 E7.39776
G1 X124.123 Y118.35 E7.42588
G1 X124.142 Y118.647 E7.45401
G1 X124.198 Y118.941 E7.48229
G1 X124.29 Y119.225 E7.5105
G1 X124.418 Y119.495 E7.53874
G1 X124.576 Y119.746 E7.56677
G1 X124.768 Y119.977 E7.59515
G1 X124.986 Y120.181 E7.62337
G1 X125.227 Y120.357 E7.65157
G1 X125.487 Y120.499 E7.67956
G1 X125.764 Y120.612 E7.70783
G1 X126.057 Y120.685 E7.73637
G1 X126.35 Y120.722 E7.76428
G1 X126.65 Y120.722 E7.79263
G1 X126.943 Y120.685 E7.82054
G1 X127.236 Y120.612 E7.84907
G1 X127.513 Y120.499 E7.87734
G1 X127.773 Y120.357 E7.90534
G1 X128.014 Y120.181 E7.93354
G1 X128.233 Y119.977 E7.96182
G1 X128.421 Y119.749 E7.98975
G1 X128.585 Y119.496 E8.01824
G0 F4320 X151.597 Y87.244
G1 F1800 X151.754 Y87.284 E8.03355
G1 X151.877 Y87.333 E8.04606
G1 X151.996 Y87.398 E8.05888
G1 X152.118 Y87.488 E8.0732
G1 X152.226 Y87.587 E8.08705
G1 X152.308 Y87.687 E8.09927
G1 X152.383 Y87.806 E8.11256
G1 X152.442 Y87.931 E8.12562
G1 X152.491 Y88.08 E8.14045
G1 X152.513 Y88.201 E8.15207
G1 X153.973 Y121.05 E11.25936
G1 X153.413 Y134.797 E12.55953
G1 X153.389 Y134.927 E12.57202
G1 X153.351 Y135.047 E12.58392
G1 X153.294 Y135.172 E12.5969
G1 X153.214 Y135.3 E12.61117
G1 X153.105 Y135.432 E12.62734
G1 X153.008 Y135.521 E12.63978
G1 X152.893 Y135.603 E12.65313
G1 X152.767 Y135.67 E12.66662
G1 X152.642 Y135.719 E12.6793
G1 X152.496 Y135.755 E12.69351
G1 X152.366 Y135.771 E12.70589
G1 X70.62 Y135.771 E20.43089
G1 X70.503 Y135.756 E20.44204
G1 X70.346 Y135.716 E20.45735
G1 X70.221 Y135.667 E20.47003
G1 X70.101 Y135.601 E20.48298
G1 X69.985 Y135.516 E20.49657
G1 X69.881 Y135.419 E20.51
G1 X69.787 Y135.304 E20.52404
G1 X69.713 Y135.189 E20.53696
G1 X69.653 Y135.061 E20.55032
G1 X69.614 Y134.936 E20.5627
G1 X69.586 Y134.793 E20.57647
G1 X69.027 Y121.05 E21.87625
G1 X70.489 Y88.188 E24.98479
G1 X70.509 Y88.079 E24.99526
G1 X70.558 Y87.931 E25.00999
G1 X70.617 Y87.806 E25.02305
G1 X70.692 Y87.687 E25.03635
G1 X70.774 Y87.587 E25.04857
G1 X70.882 Y87.488 E25.06241
G1 X71.004 Y87.398 E25.07674
G1 X71.123 Y87.333 E25.08955
G1 X71.246 Y87.284 E25.10206
G1 X71.403 Y87.244 E25.11737
G1 X71.52 Y87.229 E25.12852
G1 X151.48 Y87.229 E32.68474
G1 X151.597 Y87.244 E32.69589
G0 F4320 X151.665 Y86.9
G1 F1800 X151.864 Y86.951 E32.7153
G1 X152.024 Y87.014 E32.73155
G1 X152.188 Y87.104 E32.74923
G1 X152.336 Y87.213 E32.7666
G1 X152.48 Y87.346 E32.78512
G1 X152.592 Y87.482 E32.80177
G1 X152.692 Y87.641 E32.81952
G1 X152.77 Y87.806 E32.83677
G1 X152.83 Y87.989 E32.85497
G1 X152.861 Y88.158 E32.87121
G1 X152.875 Y88.373 E32.89157
G1 X154.324 Y121.05 E35.98258
G1 X153.775 Y134.624 E37.26637
G1 X153.761 Y134.842 E37.28701
G1 X153.729 Y135.014 E37.30355
G1 X153.678 Y135.172 E37.31924
G1 X153.602 Y135.341 E37.33675
G1 X153.503 Y135.499 E37.35437
G1 X153.359 Y135.674 E37.37578
G1 X153.229 Y135.793 E37.39244
G1 X153.077 Y135.902 E37.41011
G1 X152.913 Y135.989 E37.42766
G1 X152.746 Y136.054 E37.44459
G1 X152.561 Y136.099 E37.46258
G1 X152.386 Y136.121 E37.47925
G1 X70.599 Y136.121 E45.20812
G1 X70.435 Y136.1 E45.22375
G1 X70.236 Y136.049 E45.24316
G1 X70.076 Y135.986 E45.25941
G1 X69.911 Y135.895 E45.27722
G1 X69.764 Y135.787 E45.29445
G1 X69.623 Y135.656 E45.31264
G1 X69.505 Y135.513 E45.33016
G1 X69.406 Y135.358 E45.34754
G1 X69.327 Y135.189 E45.36517
G1 X69.273 Y135.02 E45.38194
G1 X69.239 Y134.84 E45.39925
G1 X69.225 Y134.624 E45.4197
G1 X68.676 Y121.05 E46.7035
G1 X70.14 Y88.151 E49.81553
G1 X70.17 Y87.989 E49.8311
G1 X70.23 Y87.806 E49.8493
G1 X70.308 Y87.641 E49.86654
G1 X70.408 Y87.482 E49.88429
G1 X70.52 Y87.346 E49.90094
G1 X70.664 Y87.213 E49.91947
G1 X70.812 Y87.104 E49.93684
G1 X70.976 Y87.014 E49.95451
G1 X71.136 Y86.951 E49.97076
G1 X71.335 Y86.9 E49.99018
G1 X71.499 Y86.879 E50.0058
G1 X151.501 Y86.879 E57.56599
G1 X151.665 Y86.9 E57.58162
G0 F4320 X151.647 Y86.998
G0 X128.364 Y119.375
G0 X128.277 Y119.327
G1 F1800 X128.384 Y119.094 E57.60585
G1 X128.462 Y118.854 E57.62969
G1 X128.51 Y118.603 E57.65384
G1 X128.526 Y118.35 E57.6778
G1 X128.51 Y118.097 E57.70175
G1 X128.462 Y117.846 E57.7259
G1 X128.384 Y117.606 E57.74975
G1 X128.277 Y117.373 E57.77398
G1 X128.138 Y117.158 E57.79818
G1 X127.978 Y116.963 E57.82201
G1 X127.79 Y116.788 E57.84628
G1 X127.585 Y116.64 E57.87018
G1 X127.365 Y116.518 E57.89395
G1 X127.126 Y116.422 E57.91829
G1 X126.878 Y116.36 E57.94245
G1 X126.628 Y116.328 E57.96626
G1 X126.372 Y116.328 E57.99046
G1 X126.122 Y116.36 E58.01427
G1 X125.874 Y116.422 E58.03843
G1 X125.635 Y116.518 E58.06277
G1 X125.415 Y116.64 E58.08654
G1 X125.21 Y116.788 E58.11044
G1 X125.023 Y116.963 E58.13464
G1 X124.86 Y117.16 E58.1588
G1 X124.725 Y117.374 E58.18271
G1 X124.616 Y117.604 E58.20677
G1 X124.538 Y117.846 E58.23079
G1 X124.49 Y118.097 E58.25494
G1 X124.474 Y118.35 E58.2789
G1 X124.49 Y118.603 E58.30285
G1 X124.538 Y118.854 E58.327
G1 X124.616 Y119.096 E58.35103
G1 X124.725 Y119.326 E58.37508
G1 X124.86 Y119.54 E58.39899
G1 X125.023 Y119.737 E58.42316
G1 X125.209 Y119.911 E58.44723
G1 X125.415 Y120.061 E58.47131
G1 X125.637 Y120.182 E58.4952
G1 X125.873 Y120.278 E58.51928
G1 X126.122 Y120.34 E58.54353
G1 X126.372 Y120.372 E58.56734
G1 X126.628 Y120.372 E58.59154
G1 X126.878 Y120.34 E58.61535
G1 X127.127 Y120.278 E58.6396
G1 X127.363 Y120.182 E58.66368
G1 X127.585 Y120.061 E58.68757
G1 X127.791 Y119.911 E58.71165
G1 X127.977 Y119.737 E58.73572
G1 X128.138 Y119.542 E58.75962
G1 X128.277 Y119.327 E58.78381
G0 F4320 X128.364 Y119.375
G0 X127.606 Y120.094
G0 X126.885 Y120.379
G0 X126.115 Y120.379
G0 X125.394 Y120.094
G0 X118.063 Y116.028
G0 X118.053 Y111.797
G0 X104.905 Y111.755
G0 X104.975 Y111.825
G1 F1800 X104.975 Y124.875 E60.01704
G1 X118.025 Y124.875 E61.25026
G1 X118.025 Y111.825 E62.48349
G1 X104.975 Y111.825 E63.71671
G0 F4320 X104.905 Y111.755
G0 X95.394 Y116.607
G0 X94.636 Y117.325
G0 X94.723 Y117.373
G1 F1800 X94.616 Y117.606 E63.74094
G1 X94.538 Y117.846 E63.76479
G1 X94.49 Y118.097 E63.78894
G1 X94.474 Y118.35 E63.8129
G1 X94.49 Y118.603 E63.83685
G1 X94.538 Y118.854 E63.861
G1 X94.616 Y119.094 E63.88485
G1 X94.723 Y119.327 E63.90908
G1 X94.862 Y119.542 E63.93327
G1 X95.023 Y119.737 E63.95717
G1 X95.209 Y119.911 E63.98124
G1 X95.415 Y120.061 E64.00532
G1 X95.637 Y120.182 E64.02921
G1 X95.873 Y120.278 E64.05329
G1 X96.122 Y120.34 E64.07754
G1 X96.372 Y120.372 E64.10135
G1 X96.628 Y120.372 E64.12555
G1 X96.878 Y120.34 E64.14936
G1 X97.127 Y120.278 E64.17361
G1 X97.363 Y120.182 E64.19769
G1 X97.585 Y120.061 E64.22158
G1 X97.791 Y119.911 E64.24566
G1 X97.977 Y119.737 E64.26973
G1 X98.14 Y119.54 E64.2939
G1 X98.275 Y119.326 E64.31781
G1 X98.384 Y119.096 E64.34186
G1 X98.462 Y118.854 E64.36589
G1 X98.51 Y118.603 E64.39004
G1 X98.526 Y118.35 E64.41399
G1 X98.51 Y118.097 E64.43795
G1 X98.462 Y117.846 E64.4621
G1 X98.384 Y117.604 E64.48612
G1 X98.275 Y117.374 E64.51018
G1 X98.14 Y117.16 E64.53409
G1 X97.977 Y116.963 E64.55825
G1 X97.79 Y116.788 E64.58245
G1 X97.585 Y116.64 E64.60635
G1 X97.365 Y116.518 E64.63012
G1 X97.126 Y116.422 E64.65446
G1 X96.878 Y116.36 E64.67862
G1 X96.628 Y116.328 E64.70243
G1 X96.372 Y116.328 E64.72663
G1 X96.122 Y116.36 E64.75044
G1 X95.874 Y116.422 E64.7746
G1 X95.635 Y116.518 E64.79894
G1 X95.415 Y116.64 E64.82271
G1 X95.21 Y116.788 E64.84661
G1 X95.022 Y116.963 E64.87088
G1 X94.862 Y117.158 E64.89472
G1 X94.723 Y117.373 E64.91891
G0 F4320 X95.009 Y117.53
;TYPE:WALL-OUTER
G1 F1800 X94.919 Y117.725 E64.9392
G1 X94.853 Y117.927 E64.95929
G1 X94.813 Y118.137 E64.97949
G1 X94.8 Y118.35 E64.99965
G1 X94.813 Y118.563 E65.01982
G1 X94.853 Y118.773 E65.04002
G1 X94.919 Y118.975 E65.0601
G1 X95.009 Y119.17 E65.0804
G1 X95.125 Y119.35 E65.10064
G1 X95.26 Y119.514 E65.12071
G1 X95.416 Y119.66 E65.1409
G1 X95.589 Y119.786 E65.16113
G1 X95.776 Y119.888 E65.18125
G1 X95.974 Y119.968 E65.20144
G1 X96.182 Y120.02 E65.2217
G1 X96.393 Y120.047 E65.2418
G1 X96.607 Y120.047 E65.26202
G1 X96.818 Y120.02 E65.28212
G1 X97.026 Y119.968 E65.30238
G1 X97.224 Y119.888 E65.32256
G1 X97.411 Y119.786 E65.34269
G1 X97.584 Y119.66 E65.36292
G1 X97.74 Y119.514 E65.38311
G1 X97.876 Y119.349 E65.40332
G1 X97.99 Y119.169 E65.42345
G1 X98.081 Y118.976 E65.44362
G1 X98.147 Y118.773 E65.46379
G1 X98.187 Y118.563 E65.48399
G1 X98.2 Y118.35 E65.50416
G1 X98.187 Y118.137 E65.52432
G1 X98.147 Y117.927 E65.54452
G1 X98.081 Y117.724 E65.5647
G1 X97.99 Y117.531 E65.58486
G1 X97.876 Y117.351 E65.60499
G1 X97.74 Y117.186 E65.6252
G1 X97.583 Y117.039 E65.64552
G1 X97.411 Y116.915 E65.66556
G1 X97.225 Y116.812 E65.68565
G1 X97.026 Y116.732 E65.70592
G1 X96.818 Y116.68 E65.72618
G1 X96.607 Y116.653 E65.74629
G1 X96.393 Y116.653 E65.76651
G1 X96.182 Y116.68 E65.78661
G1 X95.974 Y116.732 E65.80687
G1 X95.775 Y116.812 E65.82714
G1 X95.589 Y116.915 E65.84723
G1 X95.417 Y117.039 E65.86727
G1 X95.26 Y117.186 E65.88759
G1 X95.125 Y117.35 E65.90767
G1 X95.009 Y117.53 E65.9279
G0 F4320 X94.925 Y117.712
G0 X94.539 Y117.535
G0 X95.185 Y116.758
G0 X95.862 Y116.384
G0 X104.947 Y111.797
G0 X105.3 Y111.725
G0 X105.3 Y112.15
G1 F1800 X105.3 Y124.55 E67.0997
G1 X117.7 Y124.55 E68.2715
G1 X117.7 Y112.15 E69.4433
G1 X105.3 Y112.15 E70.6151
G0 F4320 X105.3 Y112.35
G0 X104.875 Y112.35
G0 X104.947 Y111.797
G0 X118.053 Y111.797
G0 X125.184 Y119.941
G0 X125.861 Y120.316
G0 X126.63 Y120.411
G0 X127.38 Y120.218
G0 X127.886 Y119.851
G0 X128.346 Y119.402
G0 X127.991 Y119.17
G1 F1800 X128.081 Y118.975 E70.6354
G1 X128.147 Y118.773 E70.65548
G1 X128.187 Y118.563 E70.67568
G1 X128.2 Y118.35 E70.69585
G1 X128.187 Y118.137 E70.71602
G1 X128.147 Y117.927 E70.73622
G1 X128.081 Y117.725 E70.7563
G1 X127.991 Y117.53 E70.77659
G1 X127.875 Y117.35 E70.79683
G1 X127.74 Y117.186 E70.8169
G1 X127.583 Y117.039 E70.83723
G1 X127.411 Y116.915 E70.85727
G1 X127.225 Y116.812 E70.87736
G1 X127.026 Y116.732 E70.89763
G1 X126.818 Y116.68 E70.91789
G1 X126.607 Y116.653 E70.93799
G1 X126.393 Y116.653 E70.95821
G1 X126.182 Y116.68 E70.97832
G1 X125.974 Y116.732 E70.99858
G1 X125.775 Y116.812 E71.01884
G1 X125.589 Y116.915 E71.03894
G1 X125.417 Y117.039 E71.05897
G1 X125.26 Y117.186 E71.0793
G1 X125.124 Y117.351 E71.09951
G1 X125.01 Y117.531 E71.11964
G1 X124.919 Y117.724 E71.1398
G1 X124.853 Y117.927 E71.15998
G1 X124.813 Y118.137 E71.18018
G1 X124.8 Y118.35 E71.20034
G1 X124.813 Y118.563 E71.22051
G1 X124.853 Y118.773 E71.24071
G1 X124.919 Y118.976 E71.26088
G1 X125.01 Y119.169 E71.28105
G1 X125.124 Y119.349 E71.30118
G1 X125.26 Y119.514 E71.32139
G1 X125.416 Y119.66 E71.34158
G1 X125.589 Y119.786 E71.3618
G1 X125.776 Y119.888 E71.38193
G1 X125.974 Y119.968 E71.40211
G1 X126.182 Y120.02 E71.42238
G1 X126.393 Y120.047 E71.44248
G1 X126.607 Y120.047 E71.4627
G1 X126.818 Y120.02 E71.4828
G1 X127.026 Y119.968 E71.50306
G1 X127.224 Y119.888 E71.52324
G1 X127.411 Y119.786 E71.54337
G1 X127.584 Y119.66 E71.5636
G1 X127.74 Y119.514 E71.58379
G1 X127.875 Y119.35 E71.60386
G1 X127.991 Y119.17 E71.6241
G0 F4320 X128.075 Y118.988
G0 X128.461 Y119.165
G0 X151.647 Y86.998
G0 X151.732 Y86.581
G1 F1800 X151.96 Y86.64 E71.64635
G1 X152.168 Y86.722 E71.66748
G1 X152.359 Y86.827 E71.68808
G1 X152.548 Y86.965 E71.7102
G1 X152.712 Y87.118 E71.73139
G1 X152.857 Y87.293 E71.75287
G1 X152.977 Y87.484 E71.77418
G1 X153.073 Y87.688 E71.79549
G1 X153.144 Y87.905 E71.81707
G1 X153.184 Y88.118 E71.83755
G1 X153.2 Y88.359 E71.86037
G1 X154.65 Y121.05 E74.95271
G1 X154.1 Y134.637 E76.23773
G1 X154.084 Y134.882 E76.26093
G1 X154.044 Y135.096 E76.28151
G1 X153.979 Y135.296 E76.30138
G1 X153.889 Y135.495 E76.32202
G1 X153.764 Y135.694 E76.34423
G1 X153.598 Y135.895 E76.36886
G1 X153.435 Y136.045 E76.38979
G1 X153.245 Y136.181 E76.41187
G1 X153.052 Y136.284 E76.43255
G1 X152.839 Y136.366 E76.45412
G1 X152.62 Y136.42 E76.47543
G1 X152.41 Y136.446 E76.49543
G1 X70.583 Y136.446 E84.22808
G1 X70.368 Y136.419 E84.24856
G1 X70.14 Y136.36 E84.27081
G1 X69.932 Y136.278 E84.29194
G1 X69.741 Y136.173 E84.31254
G1 X69.552 Y136.035 E84.33465
G1 X69.388 Y135.882 E84.35585
G1 X69.243 Y135.706 E84.3774
G1 X69.122 Y135.517 E84.3986
G1 X69.025 Y135.31 E84.42021
G1 X68.957 Y135.098 E84.44125
G1 X68.916 Y134.882 E84.46202
G1 X68.9 Y134.637 E84.48522
G1 X68.35 Y121.05 E85.77025
G1 X69.816 Y88.119 E88.88531
G1 X69.856 Y87.905 E88.90588
G1 X69.927 Y87.688 E88.92746
G1 X70.023 Y87.484 E88.94876
G1 X70.143 Y87.293 E88.97008
G1 X70.288 Y87.118 E88.99156
G1 X70.452 Y86.965 E89.01275
G1 X70.641 Y86.827 E89.03487
G1 X70.832 Y86.722 E89.05546
G1 X71.04 Y86.64 E89.07659
G1 X71.268 Y86.581 E89.09885
G1 X71.483 Y86.554 E89.11933
G1 X151.517 Y86.554 E96.68254
G1 X151.732 Y86.581 E96.70302
G0 F4320 X151.926 Y86.631
G0 X151.821 Y87.043
G0 X151.643 Y87.607
;TYPE:SKIN
G1 F1800 X151.733 Y87.642 E96.71214
G1 X151.817 Y87.689 E96.72124
G1 X151.904 Y87.754 E96.7315
G1 X151.98 Y87.823 E96.7412
G1 X152.029 Y87.882 E96.74845
G1 X152.087 Y87.973 E96.75865
G1 X152.122 Y88.048 E96.76647
G1 X152.162 Y88.168 E96.77842
G1 X152.173 Y88.232 E96.78456
G1 X153.633 Y121.05 E99.88893
G1 X153.073 Y134.764 E101.18598
G1 X153.06 Y134.838 E101.19308
G1 X153.032 Y134.929 E101.20208
G1 X152.992 Y135.014 E101.21095
G1 X152.94 Y135.098 E101.22029
G1 X152.857 Y135.198 E101.23257
G1 X152.794 Y135.257 E101.24073
G1 X152.721 Y135.309 E101.2492
G1 X152.623 Y135.361 E101.25968
G1 X152.539 Y135.395 E101.26824
